X:284
T: SCHOENSTER SCHATZ THU MIR ERLAUBEN
N: E1428
O: Europa, Mitteleuropa, Deutschland, Hessen, Unter- Lahn- und Dillkreis
R: Staende -, Soldaten - Lied, Liebe
M: 4/4
L: 1/8
K: G
DD | G2D2G2B2 | A3FD2
DF | A2cee2dc | B4z2
GG | c2e2g2fe | d3Bd2
ed | c2D2B2A2 | G4z2

@@@ Tune index: 4968
